X:61
T:MUS 113: HW 6
T:Simple Progression
C:Alice Corbin
%%score 1 { 2 | 3 }
L:1/4
M:3/4
I:linebreak $
K:G
%%MIDI program 40 % Violin
V:1 treble nm="Violin" snm="Vln."
%%%L:1/8
V:2 treble nm="Piano" snm="Pno."
V:3 bass 
V:1
 B>A G|  GFG  | A2 c | B3   |$B>c d| d e f| e2 ^c       | d3   ::$ B2 A  | G3   | A2 G  | F3         |$G2  A |B>A G | A>G    F   | G3   :|
V:2
 [DGB]3|[AEG]3|[DFA]3|[GBD]3|[GBD]3|[DFA]3|[EGB]2 [A^cE]|[dFA]3::$[Bd^F]3|[eGB]3|[A^ce]3|[dfA]2 [cfA]|$[GBd]3|[GBd]3|[AcE]2 [DFA]|[GBD]3:|
V:3
   G,,3| C,3  | D,3  | G,3  | G,3  | F,3  | E,2    A,   | D,3  ::$ B,3   | E,3  | A,3   |  D,3       |$ G,3  | B,3  | A,2    D,  | G,3  :|
w: G:~I| ii65 | V    | I    | G:~I |      |             |       | D:V/ii | ii   | V     |  I	     |  G:I  | I6   | ii     V   | I     |
w:     |      |      |      |D:~~IV| I6   | ii     V    | I     |        |      |       |G:~~~V8~~~~~~~7|

